X: 10729
T: Dr Kenneth Noisewater
R: strathspey
M: 4/4
K: Amixolydian
A/A/A A>B G<A A<B|d<e e>d g<e e>g|a>g e>d e<g d>B|G>G G>A B<e e>B|
A/A/A A>B G<A A<B|d<e e>d a2 e<g|a>g e>d e<g d>B|A2 A>B A2 e<g||
a2 a>f g<e e>d|B<d e<g G<B d>B|G>A A<B d<e e>d|g>f f<d e2 e<g|
a2 a>f g<e e>d|B<d e>f g2 e<g|a>g e>d e<g d>B|A2 A>B A2||

